src/assets/img/nftDashboard/shareNft/Link.svg

<svg fill="none" height="17" viewBox="0 0 17 17" width="17" xmlns="http://www.w3.org/2000/svg"><g stroke="#fff" stroke-linecap="round" stroke-linejoin="round" stroke-width="1.80911"><path d="m7.87286 4.52777 1.24369-1.2437c.25662-.25684.56132-.46062.89675-.59968.3353-.13906.6948-.21067 1.0579-.21076.3631-.00008.7226.07137 1.0581.21027.3354.1389.6402.34253.8969.59926.2568.25673.4604.56153.5993.89698s.2103.69498.2103 1.05805c-.0001.36307-.0717.72257-.2108 1.05795-.1391.33539-.3428.64009-.5997.8967l-1.7767 1.77671c-.2566.25665-.5613.46024-.8967.59914-.3353.1389-.69471.21039-1.05767.21039-.36297 0-.72238-.07149-1.05771-.21039s-.64002-.34249-.89668-.59914"/><path d="m8.584 11.6341-1.2437 1.2437c-.25661.2569-.56131.4606-.8967.5997-.33538.1391-.69488.2107-1.05795.2108-.36307 0-.7226-.0714-1.05805-.2103s-.64025-.3425-.89698-.5993c-.25672-.2567-.46036-.5615-.59926-.8969-.1389-.3355-.21035-.695-.21027-1.0581.00009-.3631.07171-.7226.21076-1.05795.13906-.33538.34284-.64008.59969-.89669l1.77671-1.77672c.25665-.25665.56134-.46024.89667-.59914.33534-.1389.69475-.21039 1.05771-.21039s.72237.07149 1.0577.21039.64003.34249.89668.59914"/></g></svg>

<svg width="17" height="17" viewBox="0 0 17 17" fill="none" xmlns="http://www.w3.org/2000/svg">
<path d="M7.87286 4.52777L9.11655 3.28407C9.37317 3.02723 9.67787 2.82345 10.0133 2.68439C10.3486 2.54533 10.7081 2.47372 11.0712 2.47363C11.4343 2.47355 11.7938 2.545 12.1293 2.6839C12.4647 2.8228 12.7695 3.02643 13.0262 3.28316C13.283 3.53989 13.4866 3.84469 13.6255 4.18014C13.7644 4.51559 13.8358 4.87512 13.8358 5.23819C13.8357 5.60126 13.7641 5.96076 13.625 6.29614C13.4859 6.63153 13.2822 6.93623 13.0253 7.19284L11.2486 8.96955C10.992 9.2262 10.6873 9.42979 10.3519 9.56869C10.0166 9.70759 9.65719 9.77908 9.29423 9.77908C8.93126 9.77908 8.57185 9.70759 8.23652 9.56869C7.90119 9.42979 7.5965 9.2262 7.33984 8.96955" stroke="white" stroke-width="1.80911" stroke-linecap="round" stroke-linejoin="round"/>
<path d="M8.584 11.6341L7.3403 12.8778C7.08369 13.1347 6.77899 13.3384 6.4436 13.4775C6.10822 13.6166 5.74872 13.6882 5.38565 13.6883C5.02258 13.6883 4.66305 13.6169 4.3276 13.478C3.99215 13.3391 3.68735 13.1355 3.43062 12.8787C3.1739 12.622 2.97026 12.3172 2.83136 11.9818C2.69246 11.6463 2.62101 11.2868 2.62109 10.9237C2.62118 10.5606 2.6928 10.2011 2.83185 9.86575C2.97091 9.53037 3.17469 9.22567 3.43154 8.96906L5.20825 7.19234C5.4649 6.93569 5.76959 6.7321 6.10492 6.5932C6.44026 6.4543 6.79967 6.38281 7.16263 6.38281C7.52559 6.38281 7.885 6.4543 8.22033 6.5932C8.55566 6.7321 8.86036 6.93569 9.11701 7.19234" stroke="white" stroke-width="1.80911" stroke-linecap="round" stroke-linejoin="round"/>
</svg>
